images/logos/colorful/xbav.svg

<svg height="48" viewBox="0 0 88 48" width="88" xmlns="http://www.w3.org/2000/svg" xmlns:xlink="http://www.w3.org/1999/xlink"><radialGradient id="a" cx="53.633623%" cy="50%" gradientTransform="matrix(-.40650525 .73826929 -.44493349 -.67450608 .976826 .441293)" r="38.703911%"><stop offset="0" stop-color="#39acde"/><stop offset="1" stop-color="#0e3c64"/></radialGradient><linearGradient id="b" x1="50%" x2="50%" y1="67.524807%" y2="100%"><stop offset="0" stop-color="#818485"/><stop offset="1" stop-color="#fff" stop-opacity="0"/></linearGradient><g fill="none" fill-rule="evenodd" transform="translate(-68 -16)"><path d="m0 0h224v80h-224z"/><path d="m55.6874522 0h5.3268102l-11.9865667 35.8474013h-5.8203572l-7.5961027-23.4787337h5.294542l5.2281577 16.5072408h.0661zm-29.3053454 12.3686676h5.2939734l8.7796488 23.4787337h-5.3595049l-1.7757455-5.2285841h-8.7800752l-1.8414192 5.2285841h-5.195463zm-20.88846508.0001422v8.5495069h.06595789c.56988184-.8765007 1.34232831-1.5177422 2.31819232-1.9238665.9752954-.4049871 1.98954008-.6081204 3.04159687-.6081204.8553202 0 1.6989842.1756982 2.5322711.5265259.8330026.3506856 1.5837001.8873042 2.2526609 1.6107087.6682501.7235467 1.2111233 1.649658 1.6277667 2.7789025.4160749 1.1291024.6244677 2.4718571.6244677 4.0281221 0 1.5566915-.2083928 2.8995884-.6244677 4.0284065-.4166434 1.1293866-.9595166 2.0547872-1.6277667 2.778476-.6689608.7235467-1.4196583 1.260876-2.2526609 1.6114194-.8332869.3502592-1.6769509.525673-2.5322711.525673-1.24936185 0-2.36737648-.1970207-3.35390179-.5913466-.9865253-.3948944-1.73210531-1.0632866-2.23602926-2.0063138h-.06595788v2.17064h-4.43893743v-23.4787337zm23.45357298 5.7873782-3.0586549 8.6157491h6.0837623l-2.9594338-8.6157491zm-19.63881893 14.6329849c.70108683 0 1.29897233-.1479788 1.79209283-.4439364.4929784-.2958155.9042201-.695543 1.2330145-1.2001777.3290787-.503924.5698819-1.0850357.7236888-1.7426245.1528119-.6580152.2299997-1.3369266.2299997-2.0390085 0-.7234045-.0771878-1.41383-.2299997-2.0711345-.1538069-.6580152-.3946101-1.2388427-.7236888-1.7433352-.3287944-.5042083-.7400361-.904078-1.2330145-1.2001777-.4931205-.2962419-1.091006-.4439364-1.79209283-.4439364-.67990642 0-1.2715373.1476945-1.77574555.4439364-.5046347.2960997-.92056742.6959694-1.24950395 1.2001777-.32907869.5044925-.57045044 1.08532-.72354666 1.7433352-.15380697.6573045-.23014186 1.34773-.23014186 2.0711345 0 .7020819.07633489 1.3809933.23014186 2.0390085.15309622.6575888.39446797 1.2387005.72354666 1.7426245.32893653.5046347.74486925.9043622 1.24950395 1.2001777.50420825.2959576 1.09583913.4439364 1.77574555.4439364z" fill="url(#a)" transform="translate(95 16)"/><path d="m88.1829715 33.3277342-3.2165842 4.8251606-3.2528326-4.8251606h-5.7897948l6.0760861 8.7566203-13.999846 21.9156455h5.6828975l11.2118459-18.0197234 3.8602422 5.8261853h5.7902213l-6.8269257-9.8290046 6.0762282-8.6497231z" fill="url(#b)"/></g></svg>

<?xml version="1.0" encoding="UTF-8"?>
<svg width="88px" height="48px" viewBox="0 0 88 48" version="1.1" xmlns="http://www.w3.org/2000/svg" xmlns:xlink="http://www.w3.org/1999/xlink">
    <!-- Generator: Sketch 50.2 (55047) - http://www.bohemiancoding.com/sketch -->
    <title>6</title>
    <desc>Created with Sketch.</desc>
    <defs>
        <radialGradient cx="53.6336234%" cy="50%" fx="53.6336234%" fy="50%" r="38.703911%" gradientTransform="translate(0.536336,0.500000),scale(0.602671,1.000000),rotate(132.415806),translate(-0.536336,-0.500000)" id="radialGradient-1">
            <stop stop-color="#39ACDE" offset="0%"></stop>
            <stop stop-color="#0E3C64" offset="100%"></stop>
        </radialGradient>
        <linearGradient x1="50%" y1="67.5248072%" x2="50%" y2="100%" id="linearGradient-2">
            <stop stop-color="#818485" offset="0%"></stop>
            <stop stop-color="#FFFFFF" stop-opacity="0" offset="100%"></stop>
        </linearGradient>
    </defs>
    <g id="Desktop" stroke="none" stroke-width="1" fill="none" fill-rule="evenodd">
        <g id="logos" transform="translate(-346.000000, -199.000000)">
            <g id="6" transform="translate(278.000000, 183.000000)">
                <rect id="Rectangle-7" x="0" y="0" width="224" height="80"></rect>
                <g id="bav" transform="translate(95.000000, 16.000000)" fill="url(#radialGradient-1)">
                    <path d="M55.6874522,0 L61.0142624,0 L49.0276957,35.8474013 L43.2073385,35.8474013 L35.6112358,12.3686676 L40.9057778,12.3686676 L46.1339355,28.8759084 L46.2000355,28.8759084 L55.6874522,0 Z M26.3821068,12.3686676 L31.6760802,12.3686676 L40.455729,35.8474013 L35.0962241,35.8474013 L33.3204786,30.6188172 L24.5404034,30.6188172 L22.6989842,35.8474013 L17.5035212,35.8474013 L26.3821068,12.3686676 Z M5.49364172,12.3688098 L5.49364172,20.9183167 L5.55959961,20.9183167 C6.12948145,20.041816 6.90192792,19.4005745 7.87779193,18.9944502 C8.85308733,18.5894631 9.86733201,18.3863298 10.9193888,18.3863298 C11.774709,18.3863298 12.618373,18.562028 13.4516599,18.9128557 C14.2846625,19.2635413 15.03536,19.8001599 15.7043208,20.5235644 C16.3725709,21.2471111 16.9154441,22.1732224 17.3320875,23.3024669 C17.7481624,24.4315693 17.9565552,25.774324 17.9565552,27.330589 C17.9565552,28.8872805 17.7481624,30.2301774 17.3320875,31.3589955 C16.9154441,32.4883821 16.3725709,33.4137827 15.7043208,34.1374715 C15.03536,34.8610182 14.2846625,35.3983475 13.4516599,35.7488909 C12.618373,36.0991501 11.774709,36.2745639 10.9193888,36.2745639 C9.67002695,36.2745639 8.55201232,36.0775432 7.56548701,35.6832173 C6.57896171,35.2883229 5.8333817,34.6199307 5.32945775,33.6769035 L5.26349987,33.6769035 L5.26349987,35.8475435 L0.824562443,35.8475435 L0.824562443,12.3688098 L5.49364172,12.3688098 Z M28.9472147,18.156188 L25.8885598,26.7719371 L31.9723221,26.7719371 L29.0128883,18.156188 L28.9472147,18.156188 Z M9.30839577,32.7891729 C10.0094826,32.7891729 10.6073681,32.6411941 11.1004886,32.3452365 C11.593467,32.049421 12.0047087,31.6496935 12.3335031,31.1450588 C12.6625818,30.6411348 12.903385,30.0600231 13.0571919,29.4024343 C13.2100038,28.7444191 13.2871916,28.0655077 13.2871916,27.3634258 C13.2871916,26.6400213 13.2100038,25.9495958 13.0571919,25.2922913 C12.903385,24.6342761 12.6625818,24.0534486 12.3335031,23.5489561 C12.0047087,23.0447478 11.593467,22.6448781 11.1004886,22.3487784 C10.6073681,22.0525365 10.0094826,21.904842 9.30839577,21.904842 C8.62848935,21.904842 8.03685847,22.0525365 7.53265022,22.3487784 C7.02801552,22.6448781 6.6120828,23.0447478 6.28314627,23.5489561 C5.95406758,24.0534486 5.71269583,24.6342761 5.55959961,25.2922913 C5.40579264,25.9495958 5.32945775,26.6400213 5.32945775,27.3634258 C5.32945775,28.0655077 5.40579264,28.7444191 5.55959961,29.4024343 C5.71269583,30.0600231 5.95406758,30.6411348 6.28314627,31.1450588 C6.6120828,31.6496935 7.02801552,32.049421 7.53265022,32.3452365 C8.03685847,32.6411941 8.62848935,32.7891729 9.30839577,32.7891729 Z" id="Mask"></path>
                </g>
                <polygon id="x" fill="url(#linearGradient-2)" points="88.1829715 33.3277342 84.9663873 38.1528948 81.7135547 33.3277342 75.9237599 33.3277342 81.999846 42.0843545 68 64 73.6828975 64 84.8947434 45.9802766 88.7549856 51.8064619 94.5452069 51.8064619 87.7182812 41.9774573 93.7945094 33.3277342"></polygon>
            </g>
        </g>
    </g>
</svg>
